X:1
T:San Souci -- Hornpipe
R:hornpipe
C:G. I. Tracy
B:Cole's 1000 Fiddle Tunes
M:2/4
L:1/16
K:Bb
vde|fbag fde=e|gfdB FGFE|DFBd gfed|ceag fde=e|
fbag fde=e|gfdB FGFE|DFBd fecA|B2d2B2:|
|:vAB|cFAc fgf=e|dGBd gagf|=eceg bg=ed|dc=Bc A2(AB)|
cFAc fgf=e|dGBd gagf|=egbg ecBG|F2A2F2:|
